Hatter-kde/actions/22/kdenlive-add-color-clip.svg

<?xml version="1.0" encoding="UTF-8"?>
<svg viewBox="0 0 22 22" xmlns="http://www.w3.org/2000/svg">
 <defs id="defs3051">
  <style id="current-color-scheme" type="text/css">.ColorScheme-Text {
        color:#363636;
      }</style>
 </defs>
 <path class="ColorScheme-Text" d="m3 3v14 1 1h16v-1-1-14h-16zm12.594 5c0.48645 1.7025 1.6938 3.172 2.2188 4.3438 0.18371 0.3484 0.28125 0.73355 0.28125 1.1562 0 1.385-1.115 2.5-2.5 2.5s-2.5-1.115-2.5-2.5c0-0.4227 0.1288-0.80785 0.3125-1.1562 0.52493-1.1718 1.701-2.6412 2.1875-4.3438z" fill="currentColor"/>
</svg>

<svg xmlns="http://www.w3.org/2000/svg" viewBox="0 0 22 22">
  <defs id="defs3051">
    <style type="text/css" id="current-color-scheme">
      .ColorScheme-Text {
        color:#363636;
      }
      </style>
  </defs>
 <path 
     style="fill:currentColor;fill-opacity:1;stroke:none" 
     d="M 3 3 L 3 17 L 3 18 L 3 19 L 19 19 L 19 18 L 19 17 L 19 3 L 3 3 z M 15.59375 8 C 16.0802 9.7025 17.28759 11.17195 17.8125 12.34375 C 17.99621 12.69215 18.09375 13.0773 18.09375 13.5 C 18.09375 14.885 16.97875 16 15.59375 16 C 14.20875 16 13.09375 14.885 13.09375 13.5 C 13.09375 13.0773 13.22255 12.69215 13.40625 12.34375 C 13.93118 11.17195 15.10729 9.7025 15.59375 8 z "
     class="ColorScheme-Text"
     />
</svg>
